X:1
T:Our Glorious Redeemer
T:Our Glorious Redeemer
T:William A. Post
T:Lizzie DeArmond, 1906
T:Public Domain Courtesy of the Cyber Hymnal™
T:Public Domain Courtesy of the Cyber Hymnal™
C:William A. Post
Z:Public Domain
Z:Courtesy of the Cyber Hymnal™
%%score ( 1 2 ) ( 3 4 )
L:1/8
Q:1/4=99
M:6/8
K:A
V:1 treble 
V:2 treble 
V:3 bass 
V:4 bass 
V:1
 [CE] | ([CA][DB])[Ec] [Fd]2 [Ec] | [DB]2 [DF] [DF]2 [D=F] | [DE]2 [DG] [DG]2 [DF] | %4
w: 1.~He|died * to show His|bound- less love, Our|glo- ri- ous Re-|
w: 2.~He|rose * to give us|life a- new, Our|glo- ri- ous Re-|
w: 3.~We’ll|praise * Him thro’ e-|ter- ni- ty, Our|glo- ri- ous Re-|
 [CE]3 [CA]2 [CE] | ([CA][DB])[Ec] [Fd]2 [Ec] | [EB]2 [^DB] [Ee]2 [Ec] | [EB]2 [Ec] (AG)[=DF] | %8
w: deem- er; He|lives * to plead for|us a- bove, Our|glo- ri- ous * Re-|
w: deem- er; He|makes * His bless- èd|prom- ise true, Our|glo- ri- ous * Re-|
w: deem- er; O’er|death * He gained the|vic- to- ry, Our|glo- ri- ous * Re-|
 E3 E2 E | (E>F)[DG] [DF]2 [DE] | [CF]2 [CE] [CE]2 [CE] | (E>F)[DG] [DF]2 [DE] | %12
w: deem- er. Let|ev- * ery heart be|glad and gay, For|sor- * row’s night has|
w: deem- er. No|more * with hope- less|grief we weep, For|death * is not an|
w: deem- er. Re-|deemed * by His un-|fail- ing grace, Some-|time * we’ll see Him|
 [CF]2 [CE] [CE]2 E | (Ac)[Ae] [Ac]2 [EA] | [FB]2 [DF] (dc)[FB] | [EA]2 [CE] [CE]2 [Ec] | %16
w: passed a- way; A|light * di- vine He|brings to- day, * Our|glo- ri- ous Re-|
w: end- less sleep; His|faith- * ful ones He’ll|safe- ly keep, * Our|glo- ri- ous Re-|
w: face to face, In|Heav- * en’s high and|ho- ly place, * Our|glo- ri- ous Re-|
 [DB]3 !fermata![CA]2 ||"^Refrain" E | [Ge]2 [GB] ([GB][Ac])[Bd] | [Bd]2 [Ac] [Ac]2 C | %20
w: deem- er.||||
w: deem- er.|He|lives tri- umph- * ant|ev- er- more, Whom|
w: deem- er.||||
 [^Ec]2 [EG] ([EG][FA])[GB] | [GB]2 [FA] [FA]2 [FA] | [FB]2 [Fc] [Fd]2 [DF] | %23
w: |||
w: an- gels bright * in|Heav’n a- dore; Come|sound His praise from|
w: |||
 [CE]2 [EA] [Ec]2 [Ee] | ([DF][Fd])[Ec] [DB]2 [Ec] | [CA]3 [CA]2 |] %26
w: |||
w: shore to shore, Our|glo- * ri- ous Re-|deem- er.|
w: |||
V:2
 x | x6 | x6 | x6 | x6 | x6 | x6 | x3 ^D2 x | E3 E2 E | D2 x4 | x6 | D2 x4 | x5 E | E2 x4 | %14
 x3 F2 x | x6 | x5 || E | x6 | x5 C | x6 | x6 | x6 | x6 | x6 | x5 |] %26
V:3
 [A,,A,] | [A,,E,]2 [A,,A,] [A,,A,]2 [A,,A,] | [D,F,]2 [D,A,] [D,A,]2 [D,A,] | %3
 [E,G,]2 [E,B,] [E,B,]2 [E,G,] | [A,,A,]3 [A,,A,]2 [A,,A,] | [A,,E,]2 [A,,A,] A,2 A, | %6
 [G,B,]2 [F,A,] [E,G,]2 [A,,A,] | [B,,G,]2 [B,,G,] (F,B,)[B,,A,] | [E,G,]3 [E,G,]2 [E,G,] | %9
 (G,>A,)[E,B,] [E,A,]2 [E,G,] | [A,,A,]2 [A,,A,] [A,,A,]2 [A,,A,] | (G,>A,)[E,B,] [E,A,]2 [E,G,] | %12
 [A,,A,]2 [A,,A,] [A,,A,]2 [A,C] | [A,C]2 [A,C] [A,E]2 [A,C] | %14
 [D,D]2 [D,B,] ([B,,B,][C,^A,])[D,B,] | [E,C]2 [E,A,] [E,A,]2 [E,A,] | %16
 (G,F,G,) !fermata![A,,A,]2 || [E,G,] | [E,A,]2 [E,E] [E,E]2 [E,E] | [A,E]2 [A,E] [A,E]2 [C,C] | %20
 [C,G,]2 [C,C] [C,C]2 [C,C] | [F,C]2 [F,C] [F,C]2 [F,C] | [D,D]2 [C,^A,] [B,,B,]2 [D,A,] | %23
 [E,A,]2 [C,A,] [A,,A,]2 [C,A,] | [D,A,]2 [D,A,] [E,G,]2 [E,G,] | [A,,A,]3 [A,,A,]2 |] %26
V:4
 x | x6 | x6 | x6 | x6 | x3 A,2 A, | x6 | x3 B,,2 x | x6 | E,2 x4 | x6 | E,2 x4 | x6 | x6 | x6 | %15
 x6 | E,3 x2 || x | x6 | x6 | x6 | x6 | x6 | x6 | x6 | x5 |] %26

